X:22
T:Boy in the Boat (reel), The 
B:CRE1.173 (Buachaill sa mBad)
F:file ID: cre.1/022boy_boat
S:Michael Brophy
N:The key signature in CRE is G, which indicates that all C's
are natural. However to me this sounds like a straight D tune 
in part A and D mix in part B. If you want to play it as
CRE presents it, just play C natural instead of C sharp in 
measure 8. 
M:C
L:1/8
Q:180
R:reel
K:D
A2AF DFAF|GFEF GFGB|ADD2 ADD2|AFGE D3F|
(3ABA AF DFAF|GFEF G3B|AFAd BGBd|cAGE D2||
K:G
"D modal"
(3ABc|d2fd cAAB|cAdA cAA2|d2fd cAAB|cAGE EDD2|
d2fd cAAB|cAdA cAA2|f3d eged|cAGE EDD2||

%%%

